!! 00010] TT[TB
!! Eigene Aufnahme
!!!OTL: Meng he ba ya er                         (Name) M”nxbajar                                (Name)
!!!ARE: Neimeng
!! Ethnic Group: Menggu
!! MM, S. 622
!!!SCT: C0551
!!!YEM: Copyright 1995, estate of Helmut Schaffrath.
**kern
*ICvox
*Ivox
*M2/4
*k[]
*C:
{8e
4g
8g
=1
4a
8dd
8ee
=2
4.cc
8dd}
=3
{8e
8g
8g
8g
=4
4a
8dd
8ee
=5
2cc}
=6
{8a
4g
8cc
=7
8g
8cc
8a
8g
=8
8e
4d}
{8e
=9
4g
4a
=10
8dd
8ee
8cc
8a
=11
8g
4e
8d
=12
[2c
=13
4.c]
8r}
==
!!!AGN: NN
!! Saenger: Chao Lun Batou, der das Buch nur zum Nachschlagen
!!    benutzte und ansonsten auswendig sang. Da er aus dem Osten der
!!    Neimeng kommt, kennt er nicht so viele Lieder des Westens.
!!    Alle Lieder wurden mit erkaelteter, halber Stimme in meinem
!!    Zimmer gesungen. FOTO VORHANDEN (DIAS)  31.3.87
!!    VARIANTE, v.a. in der letzten Phrase.
!!!ONB: ESAC (Essen Associative Code) Database: CHINA
!!!AMT: simple duple
!!!AIN: vox
!!!EED: Helmut Schaffrath
!!!EEV: 1.0
*-
!!!ONB: Tied note syntax fixed by Craig Sapp, 2004/05/03/
